X:1
T:Meimorgen
T:Catharina van Rennes
T:Meimorgen
T:Hela, gij bloempjes!
C:Catharina van Rennes
Z:Catharina van Rennes
%%score [ 1 2 ]
L:1/8
Q:1/4=100
M:4/4
K:F
V:1 treble nm="Soprano" snm="S"
V:2 treble nm="Alto" snm="A"
V:1
 cAFA G2 C2 | c2 G>G A4 | cAFA G2 c-c | d2 G>G c4 | B2 BB BAGF | E2 F>A A2 G2 | B2 AA d2 cc | %7
w: 1.He- * la, gij bloem- pjes!|Slaapt gij nu nog?|Springt _ uit uw knop- pen, _|haast u dan toch!|'t~Zon- ne- tje kijkt _ u al|vlak in 't~ge- zicht, _|Bloem- pjes, ont- waakt toch! het|
w: 2.He- * la, gij vo- gels!|droomt niet te lang!|Hoog _ van de tak- ken _|klink' uw ge- zang.|Mei is ge- ko- * men en|heeft op het veld _|Dui- zen- den bloe- men ten-|
w: 3.He- * la, gij kind- je!|vlug op de been!|'t~Zon- * ne- tje schijnt al door|'t~ven- ster- ken heen.|Vo- gels en bloe- * men, het|wach- ten haast moe, _|Roe- pen het vroo- lijk Goê-|
 =B2 cd d2 c2 | c2 dc f2 dB | A2 G>A F4 |] %10
w: is al zoo licht! _|Bloem- pjes, ont- waakt toch! het|is al zoo licht!|
w: toon- * ge- steld, _|Dui- zen- den bloe- men ten-|toon- * ge- steld.|
w: mor- gen u toe! _|Roe- pen het vroo- lijk Goê-|mor- gen u toe!|
V:2
 AFCF E2 C2 | E2 E>E F4 | AFCF E2 E-E | F2 G>G E4 | E2 EE EFGA | B2 A>F F2 E2 | G2 FF B2 AA | %7
w: 1.He- * la, gij bloem- pjes!|Slaapt gij nu nog?|Springt _ uit uw knop- pen, _|haast u dan toch!|'t~Zon- ne- tje kijkt _ u al|vlak in 't~ge- zicht, _|Bloem- pjes, ont- waakt toch! het|
w: 2.He- * la, gij vo- gels!|droomt niet te lang!|Hoog _ van de tak- ken _|klink' uw ge- zang.|Mei is ge- ko- * men en|heeft op het veld _|Dui- zen- den bloe- men ten-|
w: 3.He- * la, gij kind- je!|vlug op de been!|'t~Zon- * ne- tje schijnt al door|'t~ven- ster- ken heen.|Vo- gels en bloe- * men, het|wach- ten haast moe, _|Roe- pen het vroo- lijk Goê-|
 G2 GF F2 E2 | B2 BB A2 BG | F2 E>E F4 |] %10
w: is al zoo licht! _|Bloem- pjes, ont- waakt toch! het|is al zoo licht!|
w: toon- * ge- steld, _|Dui- zen- den bloe- men ten-|toon- * ge- steld.|
w: mor- gen u toe! _|Roe- pen het vroo- lijk Goê-|mor- gen u toe!|

